X: 24057
T: Lonely Tulip
R: reel
M: 4/4
K: Emajor
BEEE BEEE|BEEE B2 Bc|BEEE B2 ec|BAFG A2 GA|
BEEE BEEE|BEEE B2 Bc|BEEE B2 ec|BAFG A3 G|
FAce g3 f|g2 ga gfec|Beed e2 ec|Bcef gfec|
FAce g3 f|g2 ga gfec|Beed e2 ec|Bcef gfec|
Bf f2 f3 e|f2 fg fedc|Be e2 e3 c|Bcef gfec|
Bf f2 f3 e|f2 fg fedc|Bage fedc|Beed e4|

